!!!OTL: 427c. Der Schuetz.
!!!ARE: Europa, Mitteleuropa, Deutschland, Thueringen
!!!SCT: K2427
!!!TXL: @@DE
!!!YEM: Copyright 1995, estate of Helmut Schaffrath.
**kern	**text
*clefG2	*
*M2/4	*
*k[b-]	*
*F:	*
=1	=1
{8cc	Ru-
8cc	-pfe,
8dd	ru-
8dd	-pfe
=2	=2
4cc	Gräs-
8a}	-chen,
{8a	der
=3	=3
8b-	Schütʒ
8b-	iſt
8g	nicht
8g	ʒu
=4	=4
4a	Haus,
8r}	.
{8a	und
=5	=5
8cc	wenn
8cc	der
8dd	bö-
8dd	-ſe
=6	=6
8cc	Schütʒe
8cc	.
8a}	kommt,
{8a	dann
=7	=7
8b-	lau-
8b-	-fen
8g	wir
8g	nach-
=8	=8
4f	-Haus.
4r}	.
==	==
!!!AGN: Kinder - Lied, Tanz -, Lauf - Spiel
!!!ONB: ESAC (Essen Associative Code) Database: KINDER
!!!AMT: simple duple
!!!AIN: vox
!!!EED: Helmut Schaffrath
!!!EEV: 1.0
!!!GTL: Zweites Buch. Kinderspiel: 3. Lauf-, Sprung- und Haschenspiele.
!!@@COMMENT:"Ein Kind iſt Jäger, die übrigen ſind Häschen. Dieſe kauern auf der Erde und ahmen das Grasʒupfen nach, während der Jäger in der Ferne lauert. Am Schluß des Liedchens ſucht der Jäger eins 
!!der Häschen ʒu fangen. Gelingt ihm das, ſo wird das gefangene Wild jetʒt Jäger. - Mündlich aus Thüringen. Ein ähnlicher Text bei Ʒimmer 45: Rupfe, rupfe Gräschen, es ſitʒen hier ʒwei 
!!Häschen, und kommt der böſe (wilde) Jüger dort, huſch, ſind wir alle fort! Mel. daʒu: Cdur *4/8: gggc| gg ec:| aaca |agggagdgc."
!!@@END:
!!!URL-scan: https://archive.org/details/DeutschesKinderliedUndKinderspiel/page/586/mode/1up
!!!ENC: Anna Maria Matuszewska
!!!EEV: 2024/05/09
*-	*-
